X:1
T:Sweden in
T:Sweden in D-Flat Major 
T:Composed by C418 Arr: Torbjørn Brandrud ReArr: Andrew1890924 
%%score { 1 | 2 }
L:1/8
Q:1/4=44
M:4/4
K:Db
V:1 treble nm="Piano" snm="Pno."
V:2 bass 
V:1
"^\n" [E,G,]4 [A,D]4 | [F,A,]4 [A,C]4 | [E,G,B,]4 [A,DF]4 | [F,A,C]4 [A,CE]4 | [E,G,B,]4 [A,DF]4 | %5
!<(! [F,A,C]4 [A,CE]4!<)! || [E,G,B,]2 AB [A,DF]3 D/E/ | [F,A,C]3 F/A/ [A,CE]4 | %8
 [E,G,B,]dBA [A,DF]3 D/E/ | [F,A,C]3 A/F/ [A,CE]4 | [E,G,B,]2 AB [DFd]3 f/e/ | %11
 [Cc]3 [Fd]/c/ [A,CEA]4 | [E,G,B,]2 BA [A,DF]3 D/E/ | [F,A,C]3 F/A/ [A,CE]4 | %14
 [E,G,B,]2 AB [A,DF]3 D/E/ | [F,A,C]3 F/A/ [A,CE]4 | [E,G,B,]2 AB [DFd]3 D/E/ | %17
 [F,A,C]2 fF/A/ [A,CE]4 | [A,DF]3 B/A/ [B,E=G]2 ED | [E,A,C]2 DE [D,G,B,]4 | %20
 !arpeggio![DFAd]3 B/A/ [B,E=G]2 E[De] | [CEAc]2 d[De]/E/ [B,DGB]4- | [B,DGB]8 |] %23
V:2
 E,,2 F,,2 G,,2 B,,2 | A,,2 G,,2 D,,4 | E,,2 F,,2 G,,2 B,,2 | A,,2 G,,2 D,,4 | %4
 E,,2 F,,2 G,,2 B,,2 | A,,2 G,,2 D,,4 || E,,2 F,,2 G,,2 B,,2 | A,,2 G,,2 D,,4 | %8
 E,,2 F,,2 G,,2 B,,2 | A,,2 G,,2 D,,4 | E,,2 F,,2 [G,,A,]2 B,,D/E/ | [A,,F,A,]2 G,,2 D,,4 | %12
 E,,2 F,,2 G,,2 B,,2 | A,,2 G,,2 D,,4 | E,,2 F,,2 G,,2 B,,2 | A,,2 G,,2 D,,4 | %16
 E,,2 F,,2 [G,,A,]2 B,,2 | [A,,F,A,]2 G,,2 D,,4 | [B,,,B,,]4 [E,,E,]4 | [A,,,A,,]4 [G,,,F,,]4 | %20
 [B,,,B,,]4 [E,,E,]4 | [A,,,A,,]4 [G,,,G,,]4- | [G,,,G,,]8 |] %23

